flaticon/coffee-shop/cookie.svg

<svg xmlns="http://www.w3.org/2000/svg" width="32" height="32" viewBox="0 0 24 24">
    <path d="M 23.839844 10.121094 C 23.800781 9.960938 23.679688 9.839844 23.519531 9.800781 C 23.359375 9.761719 23.199219 9.839844 23.121094 9.960938 C 22.601562 10.71875 21.71875 11.199219 20.800781 11.199219 C 19.800781 11.199219 18.839844 10.679688 18.359375 9.800781 C 18.28125 9.679688 18.121094 9.601562 17.960938 9.601562 C 17.839844 9.601562 17.71875 9.601562 17.601562 9.601562 C 15.601562 9.601562 14 8 14 6 C 14 5.648438 14.046875 5.316406 14.140625 4.996094 C 14.203125 4.800781 14.269531 4.621094 14.359375 4.441406 C 14.398438 4.359375 14.398438 4.238281 14.359375 4.121094 C 14.320312 4 14.238281 3.917969 14.121094 3.878906 C 13.320312 3.601562 12.800781 2.839844 12.800781 2 C 12.800781 1.9375 12.804688 1.875 12.808594 1.816406 C 12.8125 1.773438 12.824219 1.730469 12.839844 1.679688 C 12.839844 1.652344 12.839844 1.625 12.839844 1.597656 C 12.902344 1.269531 13.039062 0.964844 13.238281 0.679688 C 13.359375 0.558594 13.359375 0.398438 13.320312 0.28125 C 13.28125 0.160156 13.160156 0.0390625 13 0.0390625 C 12.640625 0 12.320312 0 12 0 C 5.398438 0 0 5.398438 0 12 C 0 18.601562 5.398438 24 12 24 C 18.601562 24 24 18.601562 24 12 C 24 11.359375 23.921875 10.761719 23.839844 10.121094 Z M 13.339844 4.894531 C 13.101562 5.050781 12.789062 5.199219 12.398438 5.199219 C 11.519531 5.199219 10.800781 4.480469 10.800781 3.601562 C 10.800781 2.839844 11.320312 2.199219 12 2.039062 C 12 3.078125 12.601562 4 13.480469 4.480469 C 13.421875 4.613281 13.378906 4.753906 13.339844 4.894531 Z M 12 23.199219 C 5.839844 23.199219 0.800781 18.160156 0.800781 12 C 0.800781 5.839844 5.839844 0.800781 12 0.800781 C 12.078125 0.800781 12.160156 0.800781 12.28125 0.800781 C 12.207031 0.929688 12.152344 1.074219 12.109375 1.21875 C 10.925781 1.363281 10 2.378906 10 3.601562 C 10 4.921875 11.078125 6 12.398438 6 C 12.671875 6 12.945312 5.953125 13.203125 5.859375 C 13.199219 5.90625 13.199219 5.953125 13.199219 6 C 13.199219 8.441406 15.160156 10.398438 17.601562 10.398438 C 17.679688 10.398438 17.71875 10.398438 17.800781 10.398438 C 18.480469 11.398438 19.601562 12 20.800781 12 C 21.679688 12 22.519531 11.679688 23.160156 11.121094 C 23.199219 11.398438 23.199219 11.71875 23.199219 12 C 23.199219 18.160156 18.160156 23.199219 12 23.199219 Z M 12 23.199219"/>
    <path d="M6.800781 6.398438C5.480469 6.398438 4.398438 7.480469 4.398438 8.800781 4.398438 10.121094 5.480469 11.199219 6.800781 11.199219 8.121094 11.199219 9.199219 10.121094 9.199219 8.800781 9.199219 7.480469 8.121094 6.398438 6.800781 6.398438zM6.800781 10.398438C5.921875 10.398438 5.199219 9.679688 5.199219 8.800781 5.199219 7.921875 5.921875 7.199219 6.800781 7.199219 7.679688 7.199219 8.398438 7.921875 8.398438 8.800781 8.398438 9.679688 7.679688 10.398438 6.800781 10.398438zM7.199219 15.199219C6.078125 15.199219 5.199219 16.078125 5.199219 17.199219 5.199219 18.320312 6.078125 19.199219 7.199219 19.199219 8.320312 19.199219 9.199219 18.320312 9.199219 17.199219 9.199219 16.078125 8.320312 15.199219 7.199219 15.199219zM7.199219 18.398438C6.519531 18.398438 6 17.878906 6 17.199219 6 16.519531 6.519531 16 7.199219 16 7.878906 16 8.398438 16.519531 8.398438 17.199219 8.398438 17.878906 7.878906 18.398438 7.199219 18.398438zM15.199219 14C13.441406 14 12 15.441406 12 17.199219 12 18.960938 13.441406 20.398438 15.199219 20.398438 16.960938 20.398438 18.398438 18.960938 18.398438 17.199219 18.398438 15.441406 16.960938 14 15.199219 14zM15.199219 19.601562C13.878906 19.601562 12.800781 18.519531 12.800781 17.199219 12.800781 15.878906 13.878906 14.800781 15.199219 14.800781 16.519531 14.800781 17.601562 15.878906 17.601562 17.199219 17.601562 18.519531 16.519531 19.601562 15.199219 19.601562zM15.199219 19.601562"/>
</svg>

<svg xmlns="http://www.w3.org/2000/svg" width="32" height="32" viewBox="0 0 24 24">
    <path d="M23.84 10.121a.432.432 0 0 0-.32-.32.376.376 0 0 0-.399.16 2.854 2.854 0 0 1-2.32 1.238c-1 0-1.961-.52-2.442-1.398a.483.483 0 0 0-.398-.2h-.36C15.602 9.602 14 8 14 6c0-.352.047-.684.14-1.004.063-.195.13-.375.22-.555a.45.45 0 0 0 0-.32.361.361 0 0 0-.239-.242 1.98 1.98 0 0 1-1.312-2.063.677.677 0 0 1 .03-.136v-.082c.063-.328.2-.633.4-.918A.381.381 0 0 0 13.32.28.348.348 0 0 0 13 .04C12.64 0 12.32 0 12 0 5.398 0 0 5.398 0 12s5.398 12 12 12 12-5.398 12-12c0-.64-.078-1.238-.16-1.879zm-10.5-5.226c-.238.156-.55.304-.942.304a1.602 1.602 0 0 1-1.597-1.597c0-.762.52-1.403 1.199-1.563 0 1.04.602 1.961 1.48 2.441a3.038 3.038 0 0 0-.14.415zM12 23.199C5.84 23.2.8 18.16.8 12S5.84.8 12 .8h.281a1.96 1.96 0 0 0-.172.419A2.409 2.409 0 0 0 10 3.602 2.404 2.404 0 0 0 12.398 6c.274 0 .547-.047.805-.14-.004.046-.004.093-.004.14a4.386 4.386 0 0 0 4.403 4.398h.199c.68 1 1.8 1.602 3 1.602.879 0 1.719-.32 2.36-.879.038.277.038.598.038.879 0 6.16-5.039 11.2-11.199 11.2zm0 0"/>
    <path d="M6.8 6.398a2.41 2.41 0 0 0-2.402 2.403 2.407 2.407 0 0 0 2.403 2.398 2.404 2.404 0 0 0 2.398-2.398 2.407 2.407 0 0 0-2.398-2.403zm0 4a1.605 1.605 0 0 1-1.6-1.597c0-.88.722-1.602 1.6-1.602.88 0 1.598.723 1.598 1.602 0 .879-.718 1.597-1.597 1.597zm0 0M7.2 15.2c-1.122 0-2 .878-2 2 0 1.12.878 2 2 2 1.12 0 2-.88 2-2 0-1.122-.88-2-2-2zm0 3.198c-.68 0-1.2-.52-1.2-1.199C6 16.52 6.52 16 7.2 16c.679 0 1.198.52 1.198 1.2 0 .679-.52 1.198-1.199 1.198zm0 0M15.2 14a3.21 3.21 0 0 0-3.2 3.2c0 1.76 1.441 3.198 3.2 3.198 1.76 0 3.198-1.437 3.198-3.199 0-1.758-1.437-3.199-3.199-3.199zm0 5.602a2.407 2.407 0 0 1-2.4-2.403 2.404 2.404 0 0 1 2.4-2.398 2.407 2.407 0 0 1 2.402 2.398 2.41 2.41 0 0 1-2.403 2.403zm0 0"/>
</svg>
